X:2365
T:Hexham Quadrille
T:I'll get wedded in my auld claes
A:Northumberland
M:6/8
O:England
R:Jig
Z:Richard Robinson 
%%TUNEURL: http://www.leeds.ac.uk/music/Info/RRTuneBk/gettune/00000a42.html
%%ID:00000a42
K:D
A |\
dcd AFD | FED B,2A, | DEF FED | DFB ABc |\
dcd AFD | FED B,2A, | DFA A,CE | FDD D :|
|: FA |\
G2E C2A, | D2F A2F | GBG ECA, | DFA dce |\
dAF DFA | BGE B,DF | GEC A,CE | FDD D2:|
|:A|\
AFA dfd | BGB e2d | c2A ABc | dfe dcB |\
AFA dfd | BGB e2d | c2A GFE | FDD D2 :|
